svg/u1f425.svg

<svg viewBox="0 0 128 128" xmlns="http://www.w3.org/2000/svg">
  <defs/>
  <path d="M78.49,99.47 L73.14,100.03 C73.14,100.03 72.57,113.81 74.13,116.78 C75.68,119.74 80.54,120.46 84.69,120.02 C88.63,119.6 88.91,117.06 88.35,115.23 C87.79,113.4 85.25,111.71 83.14,110.44 C81.43,109.42 81.03,106.08 80.75,101.29 C80.6,98.77 78.49,99.47 78.49,99.47 Z" fill="#FE8F01"/>
  <path d="M56.25,99.8 L48.13,100.32 C48.13,100.32 48.36,106.94 47.94,109.47 C47.43,112.52 41.86,112.67 40.2,115.01 C38.93,116.79 40.51,119.93 44.05,120.36 C46.4,120.64 52.59,121.02 54.7,117.22 C56.54,113.89 56.25,99.8 56.25,99.8 Z" fill="#FE8F01"/>
  <path d="M29.97,50.06 C29.97,50.06 26.03,33.73 39.36,18.34 C52.69,2.95 76.9,5.38 89.1,18.71 C101.3,32.04 98.86,51 98.86,51 C98.86,51 103.74,60.2 111.25,66.39 C116.37,70.62 125.52,77.46 123.45,81.78 C121.39,86.1 119.32,85.16 115.75,84.97 C112.18,84.78 101.48,79.53 101.48,79.53 C101.48,79.53 99.04,106.18 65.44,106.94 C31.84,107.7 26.59,79.71 26.59,79.71 C26.59,79.71 12.7,84.03 10.45,84.03 C8.2,84.03 4.27,83.04 4.44,78.59 C4.63,73.9 13.64,69.39 17.39,65.83 C21.15,62.26 27.34,56.63 29.97,50.06 Z" fill="#FFB903"/>
  <path d="M82.336,31.664 C84.865,31.838 86.754,34.332 86.555,37.236 C86.357,40.14 84.145,42.353 81.616,42.18 C79.087,42.007 77.198,39.513 77.397,36.609 C77.595,33.705 79.807,31.491 82.336,31.664 Z" fill="#2E302D"/>
  <path d="M50.908,36.452 C51.293,39.337 49.568,41.947 47.056,42.282 C44.543,42.617 42.194,40.55 41.809,37.665 C41.424,34.78 43.149,32.17 45.662,31.835 C48.175,31.5 50.524,33.567 50.908,36.452 Z" fill="#2E302D"/>
  <path d="M63.99,40.34 C56.95,40.5 54.84,43.98 54.84,46.25 C54.84,48.92 61.6,54.84 63.85,54.84 C66.1,54.84 73,48.65 73.07,46.25 C73.14,44 70.33,40.2 63.99,40.34 Z" fill="#FE8F01"/>
  <path d="M122.11,83.91 C122.11,83.91 119.74,86.94 116.08,87.22 C112.13,87.52 105.66,86.52 101.72,83 C97.78,79.48 96.8,71.88 98.2,70.33 C99.61,68.78 101.72,75.29 107.35,78.78 C113.45,82.55 122.11,83.91 122.11,83.91 Z" fill="#FE8F01"/>
  <path d="M18.52,79.9 C23.86,77.49 31.58,68.1 32.46,69.06 C34.01,70.75 32.43,78.66 27.67,82.72 C22.88,86.8 15.66,87.41 9.6,84.88 C6.28,83.49 5.19,81.97 4.72,81.03 C3.59,78.76 11.34,83.14 18.52,79.9 Z" fill="#FE8F01"/>
</svg>

<svg viewBox="0 0 128 128" xmlns="http://www.w3.org/2000/svg">
  <path d="M78.49,99.47l-5.35,0.56c0,0-0.57,13.78,0.99,16.75c1.55,2.96,6.41,3.68,10.56,3.24 c3.94-0.42,4.22-2.96,3.66-4.79c-0.56-1.83-3.1-3.52-5.21-4.79c-1.71-1.02-2.11-4.36-2.39-9.15C80.6,98.77,78.49,99.47,78.49,99.47z " fill="#FE8F01"/>
  <path d="M56.25,99.8l-8.12,0.52c0,0,0.23,6.62-0.19,9.15c-0.51,3.05-6.08,3.2-7.74,5.54 c-1.27,1.78,0.31,4.92,3.85,5.35c2.35,0.28,8.54,0.66,10.65-3.14C56.54,113.89,56.25,99.8,56.25,99.8z" fill="#FE8F01"/>
  <path d="M29.97,50.06c0,0-3.94-16.33,9.39-31.72S76.9,5.38,89.1,18.71s9.76,32.29,9.76,32.29 s4.88,9.2,12.39,15.39c5.12,4.23,14.27,11.07,12.2,15.39c-2.06,4.32-4.13,3.38-7.7,3.19s-14.27-5.44-14.27-5.44 s-2.44,26.65-36.04,27.41S26.59,79.71,26.59,79.71s-13.89,4.32-16.14,4.32s-6.18-0.99-6.01-5.44c0.19-4.69,9.2-9.2,12.95-12.76 C21.15,62.26,27.34,56.63,29.97,50.06z" fill="#FFB903"/>
  <ellipse cx="81.97" cy="36.92" fill="#2E302D" rx="5.27" ry="4.59" transform="matrix(0.0683 -0.9977 0.9977 0.0683 39.5424 116.1821)"/>
  <ellipse cx="46.36" cy="37.06" fill="#2E302D" rx="4.59" ry="5.27" transform="matrix(0.9912 -0.1322 0.1322 0.9912 -4.4925 6.4535)"/>
  <path d="M63.99,40.34c-7.04,0.16-9.15,3.64-9.15,5.91c0,2.67,6.76,8.59,9.01,8.59s9.15-6.19,9.22-8.59 C73.14,44,70.33,40.2,63.99,40.34z" fill="#FE8F01"/>
  <path d="M122.11,83.91c0,0-2.37,3.03-6.03,3.31c-3.95,0.3-10.42-0.7-14.36-4.22S96.8,71.88,98.2,70.33 c1.41-1.55,3.52,4.96,9.15,8.45C113.45,82.55,122.11,83.91,122.11,83.91z" fill="#FE8F01"/>
  <path d="M18.52,79.9c5.34-2.41,13.06-11.8,13.94-10.84c1.55,1.69-0.03,9.6-4.79,13.66 c-4.79,4.08-12.01,4.69-18.07,2.16c-3.32-1.39-4.41-2.91-4.88-3.85C3.59,78.76,11.34,83.14,18.52,79.9z" fill="#FE8F01"/>
</svg>
